X:93
T:As soon as you please
M:6/8
L:1/8
B:Thompson's Compleat Collection of 200 Favourite Country Dances, vol. 1 (London, 1757)
Z:Transcribed and edited by Fynnian Titford-Mock, 2007
Z:abc's:AK/Fiddler's Companion
K:G
d|gba gba|gdd d2B|egf agf|gdB G2d|gba gba|gfe agf|(3e/f/g)f ed^c|d3 D2:|
|:d|dDd cDc|BDB ADA|dDd cDc|"tr"B3 A2d|dDd cDc|BDB ADA|(E/F/G)E (A/B/c)A|G3 G,2:|

